packages/icons/src/gitops-blue.svg

<svg fill="none" viewBox="0 0 64 64" xmlns="http://www.w3.org/2000/svg"><path clip-rule="evenodd" d="m30.1236 13.9135-5.8742-5.87418 3.4192-1.96642c2.9119-1.67463 6.4956-1.6894 9.4212-.03884l14.547 8.20694c3.001 1.6931 4.8442 4.8748 4.8145 8.3109l-.1441 16.656c-.029 3.3498-1.8344 6.4343-4.7463 8.109l-14.9714 8.6102c-2.9119 1.6746-6.4956 1.6894-9.4213.0388l-14.547-8.2069c-3.00096-1.6931-4.84412-4.8748-4.81439-8.3109l.14409-16.656c.02898-3.3498 1.83439-6.4343 4.7462-8.109l9.0325-5.19463 6.1968 6.19683c-.593.8385-.9414 1.8622-.9414 2.9674 0 2.3088 1.5207 4.2624 3.6151 4.9138.0421.0131.0843.0257.1268.0377v15.5422c-2.1596.6108-3.7419 2.5963-3.7419 4.9514 0 2.664 2.0246 4.8552 4.6191 5.1187.1729.0175.3484.0265.526.0265 2.8416 0 5.1452-2.3036 5.1452-5.1451 0-2.3088-1.5207-4.2625-3.6152-4.9139-.042-.0131-.0842-.0256-.1267-.0376v-15.5422c.531-.1502 1.0272-.3835 1.4734-.6851.0305-.0206.0608-.0415.0908-.0627l5.6356 5.6357c-.4149.7419-.6508 1.5976-.6508 2.508 0 2.8416 2.3035 5.1452 5.1451 5.1452 2.8417 0 5.1452-2.3036 5.1452-5.1452s-2.3036-5.1451-5.1451-5.1451c-.888 0-1.7235.2249-2.4525.621-.0193.0104-.0384.0209-.0574.0316l-5.8484-5.8483c.2614-.6166.406-1.2947.406-2.0066 0-2.8416-2.3036-5.1452-5.1452-5.1452-.7104 0-1.3871.144-2.0027.4044-.0013.0005-.0026.001-.0038.0016zm12.7665 17.0085c-.0008.0259-.0013.052-.0013.0781 0 .0807.0041.1605.0121.2391.1198 1.1793 1.1157 2.0996 2.3266 2.0996 1.2917 0 2.3388-1.047 2.3388-2.3387 0-1.2916-1.0471-2.3387-2.3388-2.3387-.0271 0-.054.0005-.0808.0014-1.2283.0417-2.2163 1.0306-2.2566 2.2592zm-12.748-11.0369c.4126.6641 1.1487 1.1063 1.988 1.1063 1.2917 0 2.3387-1.0471 2.3387-2.3387s-1.047-2.3387-2.3387-2.3387c-.0038 0-.0076 0-.0114 0-1.2864.0062-2.3273 1.0509-2.3273 2.3387 0 .4523.1284.8746.3507 1.2324zm0 22.9803c-.1896.3056-.3107.6577-.3424 1.0345-.0055.0653-.0083.1313-.0083.198 0 1.2916 1.0471 2.3387 2.3387 2.3387.0051 0 .0101-.0001.0152-.0001 1.2846-.0081 2.3235-1.0521 2.3235-2.3387 0-.0735-.0034-.1463-.01-.2181-.0344-.3704-.1552-.7165-.3425-1.0173-.4129-.6624-1.1481-1.1033-1.9862-1.1033-.8393 0-1.5754.4422-1.988 1.1063zm-18.8441-30.6151c-3.77204 2.1694-6.11582 6.1688-6.15345 10.5175l-.14409 16.656c-.03859 4.4609 2.35434 8.5863 6.24174 10.7795l14.5471 8.2069c3.7887 2.1375 8.4284 2.1184 12.1993-.0503l14.9715-8.6102c3.772-2.1693 6.1158-6.1688 6.1534-10.5175l.1441-16.656c.0386-4.4609-2.3543-8.5863-6.2418-10.7795l-14.547-8.20693c-3.7887-2.13749-8.4284-2.11839-12.1993.05032z" fill="#0278d5" fill-rule="evenodd"/></svg>

<svg viewBox="0 0 64 64" fill="none" xmlns="http://www.w3.org/2000/svg">
<path fill-rule="evenodd" clip-rule="evenodd" d="M30.1236 13.9135L24.2494 8.03932L27.6686 6.0729C30.5805 4.39827 34.1642 4.3835 37.0898 6.03406L51.6368 14.241C54.6378 15.9341 56.481 19.1158 56.4513 22.5519L56.3072 39.2079C56.2782 42.5577 54.4728 45.6422 51.5609 47.3169L36.5895 55.9271C33.6776 57.6017 30.0939 57.6165 27.1682 55.9659L12.6212 47.759C9.62024 46.0659 7.77708 42.8842 7.80681 39.4481L7.9509 22.7921C7.97988 19.4423 9.78529 16.3578 12.6971 14.6831L21.7296 9.48847L27.9264 15.6853C27.3334 16.5238 26.985 17.5475 26.985 18.6527C26.985 20.9615 28.5057 22.9151 30.6001 23.5665C30.6422 23.5796 30.6844 23.5922 30.7269 23.6042V39.1464C28.5673 39.7572 26.985 41.7427 26.985 44.0978C26.985 46.7618 29.0096 48.953 31.6041 49.2165C31.777 49.234 31.9525 49.243 32.1301 49.243C34.9717 49.243 37.2753 46.9394 37.2753 44.0979C37.2753 41.7891 35.7546 39.8354 33.6601 39.184C33.6181 39.1709 33.5759 39.1584 33.5334 39.1464V23.6042C34.0644 23.454 34.5606 23.2207 35.0068 22.9191C35.0373 22.8985 35.0676 22.8776 35.0976 22.8564L40.7332 28.4921C40.3183 29.234 40.0824 30.0897 40.0824 31.0001C40.0824 33.8417 42.3859 36.1453 45.2275 36.1453C48.0692 36.1453 50.3727 33.8417 50.3727 31.0001C50.3727 28.1585 48.0691 25.855 45.2276 25.855C44.3396 25.855 43.5041 26.0799 42.7751 26.476C42.7558 26.4864 42.7367 26.4969 42.7177 26.5076L36.8693 20.6593C37.1307 20.0427 37.2753 19.3646 37.2753 18.6527C37.2753 15.8111 34.9717 13.5075 32.1301 13.5075C31.4197 13.5075 30.743 13.6515 30.1274 13.9119C30.1261 13.9124 30.1248 13.9129 30.1236 13.9135ZM42.8901 30.922C42.8893 30.9479 42.8888 30.974 42.8888 31.0001C42.8888 31.0808 42.8929 31.1606 42.9009 31.2392C43.0207 32.4185 44.0166 33.3388 45.2275 33.3388C46.5192 33.3388 47.5663 32.2918 47.5663 31.0001C47.5663 29.7085 46.5192 28.6614 45.2275 28.6614C45.2004 28.6614 45.1735 28.6619 45.1467 28.6628C43.9184 28.7045 42.9304 29.6934 42.8901 30.922ZM30.1421 19.8851C30.5547 20.5492 31.2908 20.9914 32.1301 20.9914C33.4218 20.9914 34.4688 19.9443 34.4688 18.6527C34.4688 17.3611 33.4218 16.314 32.1301 16.314C32.1263 16.314 32.1225 16.314 32.1187 16.314C30.8323 16.3202 29.7914 17.3649 29.7914 18.6527C29.7914 19.105 29.9198 19.5273 30.1421 19.8851ZM30.1421 42.8654C29.9525 43.171 29.8314 43.5231 29.7997 43.8999C29.7942 43.9652 29.7914 44.0312 29.7914 44.0979C29.7914 45.3895 30.8385 46.4366 32.1301 46.4366C32.1352 46.4366 32.1402 46.4365 32.1453 46.4365C33.4299 46.4284 34.4688 45.3844 34.4688 44.0978C34.4688 44.0243 34.4654 43.9515 34.4588 43.8797C34.4244 43.5093 34.3036 43.1632 34.1163 42.8624C33.7034 42.2 32.9682 41.7591 32.1301 41.7591C31.2908 41.7591 30.5547 42.2013 30.1421 42.8654ZM11.298 12.2503C7.52596 14.4197 5.18218 18.4191 5.14455 22.7678L5.00046 39.4238C4.96187 43.8847 7.3548 48.0101 11.2422 50.2033L25.7893 58.4102C29.578 60.5477 34.2177 60.5286 37.9886 58.3599L52.9601 49.7497C56.7321 47.5804 59.0759 43.5809 59.1135 39.2322L59.2576 22.5762C59.2962 18.1153 56.9033 13.9899 53.0158 11.7967L38.4688 3.58977C34.6801 1.45228 30.0404 1.47138 26.2695 3.64009L11.298 12.2503Z" fill="#0278D5"/>
</svg>
